X:1
T: Take A Dance
N:25 October 1998
C:
S:
A:
O:
R:
M:6/8
K:Em
I:speed 180
%W:
% voice 1 (1 lines, 34 notes)
K:Em
M:6/8
L:1/16
E4 F2 G4 A2 B2 A2 G2 F6 E4 F2 G4 A2 B4 c2 B2 G2 E2 |E4 F2 G4 A2 B2 A2 G2 F6 D4 E2 F4 G2 A4 d2 A2 F2 D2 |
%W:
% voice 1 (1 lines, 34 notes)
E4 F2 G4 A2 B2 A2 G2 F6 E4 F2 G4 A2 B4 c2 B2 G2 E2 |E4 F2 G4 A2 B2 A2 G2 F6 D4 E2 F4 G2 A4 d2 A2 F2 D2 |
%W:
% voice 1 (1 lines, 35 notes)
d4 B2 c4 A2 B4 G2 F6 E4 F2 G4 A2 B4 c2 B2 G2 E2 |d2 d2 B2 c2 c2 A2 B2 B2 G2 F6 D4 E2 F4 G2 A4 d2 A2 F2 D2 |
%W:
% voice 1 (1 lines, 35 notes)
d4 B2 c4 A2 B4 G2 F6 E4 F2 G4 A2 B4 c2 B2 G2 E2 |d2 d2 B2 c2 c2 A2 B2 B2 G2 F6 D4 E2 F4 G2 A4 d2 A2 F2 D2 |
